!!!OTL: Der schelmische Bauer
!!!ARE: Europa, Mitteleuropa, Deutschland
!!!SCT: A0082B
!!!YEM: Copyright 1995, estate of Helmut Schaffrath.
**kern
*ICvox
*Ivox
!! Mixed meters:  3/2; 4/2
*M3/2
*k[b-]
*d:
{2d
=1
1d
2d
=2
1a
2a
=3
1fn
2g
=4
1a}
{2a
=5
1a
2a
=6
1ccn
2a
=7
1fn
2e
=8
1fn
2r
=9
*M4/2
2r}
{2fn
2fn
2fn
=10
2e
2d
4e
4d
2fn
=11
4fn
4e
1d
2c#
=12
1d
1r
=13
*M3/2
1r}
{2d
=14
2a
2a
2a
=15
2ccn
2ccn
2a
=16
1fn
2e
=17
1fn
2r
=18
*M4/2
2r}
{2fn
2fn
2fn
=19
2e
2d
4e
4d
2fn
=20
4fn
4e
1d
2c#
=21
1d
1r
=22
1r}
==
!!!AGN: Romanze, Ballade, Lied
!! Souterliedekens 1540 ad Ps. 86.
!!!ONB: ESAC (Essen Associative Code) Database: ALTDEU
!!!AMT: irregular
!!!AIN: vox
!!!EED: Helmut Schaffrath
!!!EEV: 1.0
*-
